X: 37704
T: Soft Horse
R: reel
M: 4/4
K: Dmajor
|dF~F2 FEDF|Eee^d e=dBc|dA~A2 BdAF|GFED EDCE|
~F3A FEDF|Eee^d e=dBc|dA~A2 BdAF|EDCE DEFA:|
BF~F2 Bcdc|BG~G2 BcdB|cA~A2 efed|cded cABc|
dF~F2 FEDF|Eee^d e=dBc|dA~A2 BdAF|EDCE DEFA:|

